X:5737
T:Gan ainm
R:Reel
S:(Unknown fiddle)
H:
N:
D:
Z:Adrian Scahill
M:4/4
L:1/8
K:C
cBd|ADDB cBcG|ADDG ECEG|ADDG EGcG|(3ABc GE DcBd|\
ADDB cBcG|ADDG ECEG|ADDc BGBd|1 cAGE DcBd:|2 cAGE FEDB||\
(3cdc gc acgc|(3cdc gc BcdB|(3cdc gc acgc|(3ABc GF ECEG|\
(3cdc gc acgc|(3cdc gc BcdE|FGAB cBcG|1 (3ABc GE FEDB:|2 (3ABc GE DcBd||
